X: 1
T: Cinq Noisettes
T: Five Hazelnuts
C: Ludovic and Michel
R: waltz
S: handout at NEFFA 2016 from Mark Vidor p.15 #1
Z: 2016 John Chambers <jc:trillian.mit.edu>
M: 3/4
L: 1/8
K: G
z(D |\
"G"G2) z2 B2 | "Am"AB c2 B2 | "D7"A2 B2 A2 |\
"G"G2 z2 B2 | "Am"AB c2 B2 | "D7"kA2 z2 :|
|: zD |\
"G"{EF}kG2 z2 A2 | BA G2 F2 | "E7"E2 F2 D2 |\
"G"G2 z2 A2 | "D7 (D/E/F#)"BA G2 F2 | "G"kG2 z2 :|
|: zD |\
"G/G#"k[G2D2] z2 B2 | "Am"AB c2 B2 | "D7"AD "^picotage"BD AD |\
"G"G2 z2 B2 | "C/C#"AB c2 B2 |1 "D7"kA2 z2 :|2 "D7/D#"kA2 z2 |]
   zD |\
"Em"{F}G2 z2 A2 | "Am"BA G2 F2 | "D7"E2 F2 D2 |\
"G"G2 z2 A2 | "D7 (D E F#)"BA G2 F2 | "G7"kG2 z2 zD |
"C/B"{B}kG2 z2 A2 | "Am"BA G2 F2 | "D7"E2 F2 D2 |\
"G"G2 z2 A2 | "D7 (D E F#)"BA G2 F2 | "G7"kG2 z2 |
